data/icons/scalable/actions/text-heading-symbolic.svg

<?xml version="1.0" encoding="UTF-8"?>
<svg height="16px" viewBox="0 0 16 16" width="16px" xmlns="http://www.w3.org/2000/svg">
    <g fill="#222222">
        <path d="m 3 12 h 10 c 0.550781 0 1 -0.449219 1 -1 s -0.449219 -1 -1 -1 h -10 c -0.550781 0 -1 0.449219 -1 1 s 0.449219 1 1 1 z m 0 0" fill-opacity="0.329412"/>
        <path d="m 3 15 h 4 c 0.550781 0 1 -0.449219 1 -1 s -0.449219 -1 -1 -1 h -4 c -0.550781 0 -1 0.449219 -1 1 s 0.449219 1 1 1 z m 0 0" fill-opacity="0.329412"/>
        <path d="m 4.53125 0.96875 c -1.386719 0 -2.53125 1.144531 -2.53125 2.53125 v 4.5 c 0 0.550781 0.449219 1 1 1 s 1 -0.449219 1 -1 v -2 h 1 v 2 c 0 0.550781 0.449219 1 1 1 s 1 -0.449219 1 -1 v -4.480469 c 0.027344 -1.367187 -1.082031 -2.519531 -2.449219 -2.550781 c -0.007812 0 -0.011719 0 -0.019531 0 z m -0.011719 2.011719 c 0.277344 0.015625 0.484375 0.21875 0.480469 0.5 v 0.019531 v 0.5 h -1 v -0.5 c 0 -0.296875 0.226562 -0.507812 0.519531 -0.519531 z m 0 0"/>
        <path d="m 9 1 c -0.550781 0 -1 0.449219 -1 1 v 6 c 0 0.550781 0.449219 1 1 1 h 1.5 c 1.367188 0 2.5 -1.132812 2.5 -2.5 s -1.132812 -2.5 -2.5 -2.5 h -0.5 v -2 c 0 -0.550781 -0.449219 -1 -1 -1 z m 1 5 h 0.5 c 0.289062 0 0.5 0.210938 0.5 0.5 s -0.210938 0.5 -0.5 0.5 h -0.5 z m 0 0"/>
    </g>
</svg>

<svg xmlns="http://www.w3.org/2000/svg" width="16" height="16" viewBox="0 0 16 16"><g fill="#222"><path fill-opacity=".329" d="M3 12h10c.55 0 1-.45 1-1s-.45-1-1-1H3c-.55 0-1 .45-1 1s.45 1 1 1M3 15h4c.55 0 1-.45 1-1s-.45-1-1-1H3c-.55 0-1 .45-1 1s.45 1 1 1m0 0"/><path d="M4.531.969A2.546 2.546 0 0 0 2 3.5V8c0 .55.45 1 1 1s1-.45 1-1V6h1v2c0 .55.45 1 1 1s1-.45 1-1V3.52A2.52 2.52 0 0 0 4.55.969zM4.52 2.98c.277.016.484.22.48.5V4H4v-.5c0-.297.227-.508.52-.52M9 1c-.55 0-1 .45-1 1v6c0 .55.45 1 1 1h1.5C11.867 9 13 7.867 13 6.5S11.867 4 10.5 4H10V2c0-.55-.45-1-1-1m1 5h.5c.29 0 .5.21.5.5s-.21.5-.5.5H10zm0 0"/></g></svg>
